img/svg/vacancies/briefcase.svg

<svg width="24" height="24" viewBox="0 0 24 24" fill="none" xmlns="http://www.w3.org/2000/svg">
<g clip-path="url(#clip0_9344_47937)">
<path d="M7.5 5H8V4.5V3.75C8 3.28587 8.18437 2.84075 8.51256 2.51256L8.15901 2.15901L8.51256 2.51256C8.84075 2.18437 9.28587 2 9.75 2H14.25C14.7141 2 15.1592 2.18437 15.4874 2.51256C15.8156 2.84075 16 3.28587 16 3.75V4.5V5H16.5H21.75C22.2141 5 22.6592 5.18437 22.9874 5.51256C23.3156 5.84075 23.5 6.28587 23.5 6.75V18.75C23.5 19.2141 23.3156 19.6592 22.9874 19.9874C22.6592 20.3156 22.2141 20.5 21.75 20.5H2.25C1.78587 20.5 1.34075 20.3156 1.01256 19.9874C0.684374 19.6592 0.5 19.2141 0.5 18.75V6.75C0.5 6.28587 0.684375 5.84075 1.01256 5.51256C1.34075 5.18437 1.78587 5 2.25 5H7.5ZM15 5H15.5V4.5V3.75C15.5 3.41848 15.3683 3.10054 15.1339 2.86612C14.8995 2.6317 14.5815 2.5 14.25 2.5H9.75C9.41848 2.5 9.10054 2.6317 8.86612 2.86612C8.6317 3.10054 8.5 3.41848 8.5 3.75V4.5V5H9H15ZM23 10.7265V10.0758L22.3712 10.2434L12.4503 12.8878C12.4503 12.8878 12.4503 12.8879 12.4502 12.8879C12.1552 12.9664 11.8447 12.9664 11.5497 12.8878L1.62885 10.2419L1 10.0742V10.725V18.75C1 19.0815 1.1317 19.3995 1.36612 19.6339C1.60054 19.8683 1.91848 20 2.25 20H21.75C22.0815 20 22.3995 19.8683 22.6339 19.6339C22.8683 19.3995 23 19.0815 23 18.75V10.7265ZM22.6288 9.65712L23 9.55815V9.174V6.75C23 6.41848 22.8683 6.10054 22.6339 5.86612C22.3995 5.6317 22.0815 5.5 21.75 5.5H2.25C1.91848 5.5 1.60054 5.6317 1.36612 5.86612C1.1317 6.10054 1 6.41848 1 6.75V9.174V9.55815L1.37119 9.65712L11.6775 12.4051C11.8888 12.4615 12.1112 12.4615 12.3225 12.4051L22.6288 9.65712Z" fill="#FBFBFB" stroke="#FBFBFB"/>
</g>
<defs>
<clipPath id="clip0_9344_47937">
<rect width="24" height="24" fill="white"/>
</clipPath>
</defs>
</svg>

<svg width="24" height="24" fill="none" xmlns="http://www.w3.org/2000/svg"><g clip-path="url(#clip0_9344_47937)"><path d="M7.5 5H8V3.75c0-.464.184-.91.513-1.237l-.354-.354.354.354A1.75 1.75 0 019.75 2h4.5A1.75 1.75 0 0116 3.75V5h5.75a1.75 1.75 0 011.75 1.75v12a1.75 1.75 0 01-1.75 1.75H2.25A1.75 1.75 0 01.5 18.75v-12A1.75 1.75 0 012.25 5H7.5zM15 5h.5V3.75a1.25 1.25 0 00-1.25-1.25h-4.5A1.25 1.25 0 008.5 3.75V5H15zm8 5.726v-.65l-.629.167-9.92 2.645s0 0 0 0a1.75 1.75 0 01-.901 0l-9.921-2.646L1 10.074v8.676A1.25 1.25 0 002.25 20h19.5A1.25 1.25 0 0023 18.75v-8.024zm-.371-1.069L23 9.558V6.75a1.25 1.25 0 00-1.25-1.25H2.25A1.25 1.25 0 001 6.75v2.808l.371.1 10.306 2.747c.212.056.434.056.646 0l10.306-2.748z" fill="#FBFBFB" stroke="#FBFBFB"/></g><defs><clipPath id="clip0_9344_47937"><path fill="#fff" d="M0 0h24v24H0z"/></clipPath></defs></svg>
